spark-frontend/src/assets/wallets/fuel.svg

<svg width="18" height="18" viewBox="0 0 18 18" fill="none" xmlns="http://www.w3.org/2000/svg">
<g clip-path="url(#clip0_3329_7097)">
<path d="M16.5872 1.93604H1.30811V16.7965H16.5872V1.93604Z" fill="black"/>
<path d="M1.19692 0C0.534668 0 0 0.534663 0 1.19692V18H14.8932C15.3966 18 15.8807 17.8001 16.237 17.4437L17.4437 16.237C17.8001 15.8807 18 15.3966 18 14.8932V0H1.19692ZM11.7527 2.31441L5.89804 8.16912C5.75351 8.31359 5.55603 8.39548 5.35134 8.39548C5.05272 8.39548 4.77815 8.22213 4.6505 7.95234L2.38183 3.15734C2.1964 2.76479 2.48298 2.31441 2.91649 2.31441H11.7527ZM2.31441 15.6856V9.98979C2.31441 9.68635 2.56007 9.44069 2.86351 9.44069H8.55926L2.31441 15.6856ZM9.03129 8.39548H7.14553L12.8197 2.72144C13.0797 2.4613 13.4338 2.31441 13.8022 2.31441H15.6879L10.0139 7.98844C9.75385 8.2486 9.39977 8.39548 9.03129 8.39548Z" fill="#00F58C"/>
</g>
<defs>
<clipPath id="clip0_3329_7097">
<rect width="18" height="18" fill="white"/>
</clipPath>
</defs>
</svg>

<svg xmlns="http://www.w3.org/2000/svg" width="18" height="18" fill="none"><g clip-path="url(#a)"><path fill="#000" d="M16.587 1.936H1.308v14.86h15.28z"/><path fill="#00F58C" d="M1.197 0C.535 0 0 .535 0 1.197V18h14.893c.504 0 .988-.2 1.344-.556l1.207-1.207c.356-.356.556-.84.556-1.344V0zm10.556 2.314L5.898 8.17a.775.775 0 0 1-1.247-.217L2.38 3.157a.59.59 0 0 1 .535-.843zM2.314 15.686V9.99a.55.55 0 0 1 .55-.55h5.695zm6.717-7.29H7.146L12.82 2.72c.26-.26.614-.407.982-.407h1.886l-5.674 5.674a1.4 1.4 0 0 1-.983.407"/></g><defs><clipPath id="a"><path fill="#fff" d="M0 0h18v18H0z"/></clipPath></defs></svg>
